X:126
T:Merry Mortals. WCD3/6.126
A: England; London
O:
M:6/4
L:1/8
Z:vmp.Peter Dunk.2011.from a transcription by Paul Dennant
B:John Walsh Jr. The Compleat Country Dancing Master.Vol 6 1756
Q:3/4=80
K:C
g2|e3 d c2 g4 G2|c3 d c2 B3 c d2|e3 f g2 e4 d2|d6-d4:|
|:d2|B3 A G2 d4 e2|f3 g f2 e4 ag|f3 e f2 d3 e f2|
g3 f g2 c3 d f2|g3 f g2 c3 d e2|f3 e d2 d4 c2|c6-c4:|

